X: 7
T:Mulhair's Jig
M:6/8
L:1/8
Q:120     %Tempo
C:Traditional
K:G
E |:EDE G2 A |BeB dBd |edB GAB |1
ABA AGE :|2AGF G2 B ||d2 d def |gfe fdB |
ABA ABd |egf e2 f |g2 e fed |edB gfg |
edB AGA |BGG G2 E ||]

